assets/dist/images/eye.svg

<svg xmlns="http://www.w3.org/2000/svg" viewBox="0 0 14 13" enable-background="new 0 0 14 13"><path fill="#F27486" d="M126 5.5c-3.312 0-6-2.688-6-6s2.688-6 6-6 6 2.688 6 6-2.688 6-6 6zm0-10.25c-2.344 0-4.25 1.906-4.25 4.25s1.906 4.25 4.25 4.25 4.25-1.906 4.25-4.25-1.907-4.25-4.25-4.25zm1 5c0 .141-.109.25-.25.25h-2.5c-.141 0-.25-.109-.25-.25v-.5c0-.141.109-.25.25-.25h1.75v-2.75c0-.141.109-.25.25-.25h.5c.141 0 .25.109.25.25v3.5z"/><path fill="#FB5853" d="M13.844 7.039c-1.438 2.367-4.071 3.961-6.844 3.961s-5.406-1.602-6.844-3.961c-.094-.164-.156-.344-.156-.539s.062-.375.156-.539c1.438-2.359 4.071-3.961 6.844-3.961s5.406 1.602 6.844 3.961c.094.164.156.344.156.539s-.062.375-.156.539zm-3.821-3.297c.313.531.477 1.141.477 1.758 0 1.93-1.57 3.5-3.5 3.5s-3.5-1.57-3.5-3.5c0-.617.164-1.227.477-1.758-1.219.625-2.235 1.61-2.977 2.758 1.336 2.062 3.492 3.5 6 3.5s4.664-1.438 6-3.5c-.742-1.148-1.758-2.133-2.977-2.758zm-3.023-.617c-1.305 0-2.375 1.07-2.375 2.375 0 .203.172.375.375.375s.375-.172.375-.375c0-.891.734-1.625 1.625-1.625.203 0 .375-.172.375-.375s-.172-.375-.375-.375z"/></svg>

<?xml version="1.0" encoding="utf-8"?>
<!-- Generator: Adobe Illustrator 17.1.0, SVG Export Plug-In . SVG Version: 6.00 Build 0)  -->
<!DOCTYPE svg PUBLIC "-//W3C//DTD SVG 1.1//EN" "http://www.w3.org/Graphics/SVG/1.1/DTD/svg11.dtd">
<svg version="1.1" id="Layer_1" xmlns="http://www.w3.org/2000/svg" xmlns:xlink="http://www.w3.org/1999/xlink" x="0px" y="0px"
	 viewBox="0 0 14 13" enable-background="new 0 0 14 13" xml:space="preserve">
<g>
	<path fill="#F27486" d="M126,5.5c-3.312,0-6-2.688-6-6s2.688-6,6-6s6,2.688,6,6S129.312,5.5,126,5.5z M126-4.75
		c-2.344,0-4.25,1.906-4.25,4.25s1.906,4.25,4.25,4.25s4.25-1.906,4.25-4.25S128.343-4.75,126-4.75z M127,0.25
		c0,0.141-0.109,0.25-0.25,0.25h-2.5c-0.141,0-0.25-0.109-0.25-0.25v-0.5c0-0.141,0.109-0.25,0.25-0.25H126v-2.75
		c0-0.141,0.109-0.25,0.25-0.25h0.5c0.141,0,0.25,0.109,0.25,0.25V0.25z"/>
</g>
<g>
	<path fill="#FB5853" d="M13.844,7.039C12.406,9.406,9.773,11,7,11S1.594,9.398,0.156,7.039C0.062,6.875,0,6.695,0,6.5
		s0.062-0.375,0.156-0.539C1.594,3.602,4.227,2,7,2s5.406,1.602,6.844,3.961C13.938,6.125,14,6.305,14,6.5
		S13.938,6.875,13.844,7.039z M10.023,3.742C10.336,4.273,10.5,4.883,10.5,5.5C10.5,7.43,8.93,9,7,9S3.5,7.43,3.5,5.5
		c0-0.617,0.164-1.227,0.477-1.758C2.758,4.367,1.742,5.352,1,6.5C2.336,8.562,4.492,10,7,10s4.664-1.438,6-3.5
		C12.258,5.352,11.242,4.367,10.023,3.742z M7,3.125c-1.305,0-2.375,1.07-2.375,2.375c0,0.203,0.172,0.375,0.375,0.375
		S5.375,5.703,5.375,5.5c0-0.891,0.734-1.625,1.625-1.625c0.203,0,0.375-0.172,0.375-0.375S7.203,3.125,7,3.125z"/>
</g>
</svg>
